X:1
T:D Major Samuel Babcock, 1803
T:Isaac Watts, 1707 (Hymn 137, Book 1)     88. 88. (L. M.)
T:Waltham
T:Transcribed from The Middlesex Harmony, 1803.
%%score [ 1 2 3 4 ]
L:1/8
Q:1/4=170
M:4/4
K:D
V:1 treble nm="Tr." snm="Tr."
V:2 treble nm="C." snm="C."
V:3 treble-8 nm="T." snm="T."
V:4 bass nm="B." snm="B."
V:1
 d4 A2 A2 | B2 A2 B2 d2 | c6 e2 | f2 d2 c2 B2 | A4 ^G4 | A6 A2 | A2 F2 A2 d2 | c2 c2 c2 c2 | %8
 d2 A2 B2 e2 | d4 c4 | d8 |: A4 A2 A2 | d2 d2 d2 A2 | F3 A B2 A2 | B2 d2 g2 f2 | e4 c4 | %16
 d2 A2 F2 A2 | Bc d2 c3 A | f2 f2 B2 e2 | d4 c4 | d8 :| %21
V:2
 F4 F2 F2 | G2 A2 B2 A2 | A6 A2 | A2 A2 G2 F2 | E4 E4 | E6 E2 | F2 F2 A2 A2 | A2 A2 A2 A2 | %8
w: 1.~Now to the|power of God su-|preme Be|ev- er- las- ting|hon- ors|given; He|saves from hell; we|bless his name, He|
 A2 F2 B2 B2 | A4 A4 | F8 |: F4 F2 F2 | F2 F2 F2 A2 | A3 A B2 A2 | B2 A2 B2 A2 | A4 A4 | %16
w: calls our wand'- ring|feet to|heav'n.|Not for our|du- ties or de-|serts, But of his|own a- boun- ding|grace, He|
 A2 A2 A2 A2 | A2 A2 A3 F | B2 A2 B2 B2 | A4 A4 | F8 :| %21
w: works sal- va- tion|in our hearts, And|forms a peo- ple|for his|praise.|
V:3
 A4 d2 f2 | e2 d2 g2 f2 | e6 e2 | d2 f2 e2 d2 | c4 B4 | A6 A2 | F2 A2 d2 f2 | e2 e2 e2 e2 | %8
w: 2.~Je- sus the|Lord ap- pears at|last, And|makes his Fa- ther's|coun- sels|known; De-|clares the great trans-|ac- tions past, And|
 f2 d2 e2 g2 | f4 e4 | d8 |: d4 d2 d2 | A2 A2 F2 A2 | d3 f e2 d2 | g2 f2 e2 d2 | e4 e4 | %16
w: brings im- mor- tal|bles- sings|down.|He dies, and|in that dread- ful|night Did all the|powers of hell de-|stroy; Ri-|
 f2 f2 f2 e2 | dc B2 A3 c | d2 d2 d2 g2 | f4 e4 | d8 :| %21
w: sing, he brought our|heav'n * to light, And|took pos- ses- sion|of the|joy.|
V:4
 D,4 D,2 D,2 | G,2 F,2 E,2 D,2 | A,6 A,2 | D,2 D,2 C,2 D,2 | E,4 E,4 | A,,6 A,,2 | %6
 D,2 D,2 D,2 D,2 | A,2 A,2 A,2 A,2 | F,2 F,2 G,2 G,2 | A,4 A,4 | D,8 |: D,4 D,2 D,2 | %12
 D,2 D,2 D,2 D,2 | D,3 D, G,2 F,2 | E,2 D,2 C,2 D,2 | A,,4 A,4 | F,2 D,2 D,2 A,,2 | %17
 D,E, F,G, A,3 A, | B,2 F,2 G,2 E,2 | A,4 A,,4 | D,8 :| %21

